img/header_image.svg

<svg width="743" height="387" viewBox="0 0 743 387" fill="none" xmlns="http://www.w3.org/2000/svg">
<g filter="url(#filter0_d_374_4450)">
<path d="M598.114 29.9946H143.102C126.359 29.9946 112.785 43.5375 112.785 60.2435V348.497C112.785 365.203 126.359 378.746 143.102 378.746H598.114C614.858 378.746 628.432 365.203 628.432 348.497V60.2435C628.432 43.5375 614.858 29.9946 598.114 29.9946Z" fill="#FFE083"/>
<path d="M598.114 30.2488C614.69 30.2488 628.177 43.7057 628.177 60.2435V348.497C628.177 365.035 614.69 378.492 598.114 378.492H143.102C126.527 378.492 113.04 365.035 113.04 348.497V60.2435C113.04 43.7057 126.527 30.2488 143.102 30.2488H598.114ZM598.114 29.7404H143.102C126.216 29.7404 112.53 43.3956 112.53 60.2435V348.497C112.53 365.345 126.216 379 143.102 379H598.114C615 379 628.686 365.345 628.686 348.497V60.2435C628.686 43.3956 615 29.7404 598.114 29.7404Z" fill="#FFE083"/>
<path d="M112.785 71.1737V60.2435C112.785 43.5634 126.385 29.9946 143.102 29.9946H598.114C614.832 29.9946 628.432 43.5634 628.432 60.2435V71.1737H112.785Z" fill="#EF4D1F"/>
<path d="M598.114 30.2488C614.69 30.2488 628.177 43.7057 628.177 60.2435V70.9195H113.04V60.2435C113.04 43.7057 126.527 30.2488 143.102 30.2488H598.114ZM598.114 29.7404H143.102C126.216 29.7404 112.53 43.3956 112.53 60.2435V71.4279H628.686V60.2435C628.686 43.3956 615 29.7404 598.114 29.7404Z" fill="#EF4D1F"/>
<path d="M149.217 62.5312C155.83 62.5312 161.191 57.1823 161.191 50.5842C161.191 43.986 155.83 38.6372 149.217 38.6372C142.604 38.6372 137.243 43.986 137.243 50.5842C137.243 57.1823 142.604 62.5312 149.217 62.5312Z" fill="#B81309"/>
<path d="M149.217 38.8913C155.677 38.8913 160.936 44.1379 160.936 50.5842C160.936 57.0305 155.677 62.277 149.217 62.277C142.756 62.277 137.497 57.0305 137.497 50.5842C137.497 44.1379 142.756 38.8913 149.217 38.8913ZM149.217 38.383C142.465 38.383 136.988 43.8481 136.988 50.5842C136.988 57.3203 142.465 62.7854 149.217 62.7854C155.968 62.7854 161.445 57.3203 161.445 50.5842C161.445 43.8481 155.968 38.383 149.217 38.383Z" fill="#B81309"/>
<path d="M182.336 62.5312C188.949 62.5312 194.31 57.1823 194.31 50.5842C194.31 43.986 188.949 38.6372 182.336 38.6372C175.723 38.6372 170.362 43.986 170.362 50.5842C170.362 57.1823 175.723 62.5312 182.336 62.5312Z" fill="#B81309"/>
<path d="M182.336 38.8913C188.797 38.8913 194.055 44.1379 194.055 50.5842C194.055 57.0305 188.797 62.277 182.336 62.277C175.875 62.277 170.617 57.0305 170.617 50.5842C170.617 44.1379 175.875 38.8913 182.336 38.8913ZM182.336 38.383C175.585 38.383 170.107 43.8481 170.107 50.5842C170.107 57.3203 175.585 62.7854 182.336 62.7854C189.088 62.7854 194.565 57.3203 194.565 50.5842C194.565 43.8481 189.088 38.383 182.336 38.383Z" fill="#B81309"/>
<path d="M212.908 62.5312C219.521 62.5312 224.882 57.1823 224.882 50.5842C224.882 43.986 219.521 38.6372 212.908 38.6372C206.295 38.6372 200.934 43.986 200.934 50.5842C200.934 57.1823 206.295 62.5312 212.908 62.5312Z" fill="#B81309"/>
<path d="M212.908 38.8913C219.369 38.8913 224.627 44.1379 224.627 50.5842C224.627 57.0305 219.369 62.277 212.908 62.277C206.447 62.277 201.189 57.0305 201.189 50.5842C201.189 44.1379 206.447 38.8913 212.908 38.8913ZM212.908 38.383C206.157 38.383 200.679 43.8481 200.679 50.5842C200.679 57.3203 206.157 62.7854 212.908 62.7854C219.659 62.7854 225.137 57.3203 225.137 50.5842C225.137 43.8481 219.659 38.383 212.908 38.383Z" fill="#B81309"/>
</g>
<g filter="url(#filter1_d_374_4450)">
<path d="M238.64 82.3582H14.4454C8.81727 82.3582 4.25476 86.9104 4.25476 92.5258V133.197C4.25476 138.812 8.81727 143.364 14.4454 143.364H238.64C244.268 143.364 248.83 138.812 248.83 133.197V92.5258C248.83 86.9104 244.268 82.3582 238.64 82.3582Z" fill="white"/>
<path d="M38.3934 136.247C51.3381 136.247 61.8319 125.777 61.8319 112.861C61.8319 99.9456 51.3381 89.4755 38.3934 89.4755C25.4487 89.4755 14.9549 99.9456 14.9549 112.861C14.9549 125.777 25.4487 136.247 38.3934 136.247Z" fill="#E5FF69"/>
<path d="M225.392 95.3219H73.0416C71.4939 95.3219 70.2392 96.5738 70.2392 98.118V101.677C70.2392 103.221 71.4939 104.473 73.0416 104.473H225.392C226.939 104.473 228.194 103.221 228.194 101.677V98.118C228.194 96.5738 226.939 95.3219 225.392 95.3219Z" fill="#D2E286"/>
<path d="M146.414 122.266H73.0416C71.4939 122.266 70.2392 123.518 70.2392 125.062C70.2392 126.607 71.4939 127.858 73.0416 127.858H146.414C147.962 127.858 149.217 126.607 149.217 125.062C149.217 123.518 147.962 122.266 146.414 122.266Z" fill="#D2E286"/>
<path d="M225.392 122.266H188.705C187.158 122.266 185.903 123.518 185.903 125.062C185.903 126.607 187.158 127.858 188.705 127.858H225.392C226.939 127.858 228.194 126.607 228.194 125.062C228.194 123.518 226.939 122.266 225.392 122.266Z" fill="#D2E286"/>
</g>
<g filter="url(#filter2_d_374_4450)">
<path d="M718.364 0.254196H495.189C483.933 0.254196 474.808 9.35864 474.808 20.5895V143.618C474.808 154.849 483.933 163.954 495.189 163.954H718.364C729.62 163.954 738.745 154.849 738.745 143.618V20.5895C738.745 9.35864 729.62 0.254196 718.364 0.254196Z" fill="#FFEFBE"/>
<path d="M710.211 13.4722H502.832C497.204 13.4722 492.641 18.0244 492.641 23.6398V113.115C492.641 118.731 497.204 123.283 502.832 123.283H710.211C715.84 123.283 720.402 118.731 720.402 113.115V23.6398C720.402 18.0244 715.84 13.4722 710.211 13.4722Z" fill="#FF3E48"/>
<path d="M645.302 57.4575L602.731 32.9331C593.6 27.6713 582.186 34.2498 582.186 44.7683V93.812C582.186 104.33 593.6 110.909 602.731 105.647L645.302 81.1228C654.433 75.861 654.433 62.7142 645.302 57.4524V57.4575Z" fill="white"/>
<path d="M583.338 133.959H495.698C494.01 133.959 492.641 135.325 492.641 137.009C492.641 138.694 494.01 140.06 495.698 140.06H583.338C585.026 140.06 586.395 138.694 586.395 137.009C586.395 135.325 585.026 133.959 583.338 133.959Z" fill="#FFC1A5"/>
<path d="M554.804 146.669H495.698C494.01 146.669 492.641 148.034 492.641 149.719C492.641 151.404 494.01 152.769 495.698 152.769H554.804C556.493 152.769 557.861 151.404 557.861 149.719C557.861 148.034 556.493 146.669 554.804 146.669Z" fill="#FFC1A5"/>
<path d="M688.811 146.669H629.705C628.017 146.669 626.648 148.034 626.648 149.719C626.648 151.404 628.017 152.769 629.705 152.769H688.811C690.5 152.769 691.868 151.404 691.868 149.719C691.868 148.034 690.5 146.669 688.811 146.669Z" fill="#FFC1A5"/>
<path d="M717.345 133.959H629.705C628.017 133.959 626.648 135.325 626.648 137.009C626.648 138.694 628.017 140.06 629.705 140.06H717.345C719.033 140.06 720.402 138.694 720.402 137.009C720.402 135.325 719.033 133.959 717.345 133.959Z" fill="#FFC1A5"/>
</g>
<g filter="url(#filter3_d_374_4450)">
<path d="M255.964 216.826H41.9601C30.7039 216.826 21.5789 225.93 21.5789 237.161V323.586C21.5789 334.817 30.7039 343.922 41.9601 343.922H255.964C267.22 343.922 276.345 334.817 276.345 323.586V237.161C276.345 225.93 267.22 216.826 255.964 216.826Z" fill="white"/>
<path d="M86.0347 281.39H136.224C136.224 308.863 113.57 331.466 86.0347 331.466C79.5534 331.466 73.1333 330.216 67.131 327.775L86.0347 281.39Z" fill="#FFE083"/>
<path d="M83.9965 280.882L64.7056 327.109C46.0313 319.351 33.8076 301.06 33.8076 280.882C33.8076 271.604 36.3909 262.504 41.2723 254.604L83.9965 280.882Z" fill="#EF4D1F"/>
<path d="M85.52 279.392L42.7907 253.129C51.9164 238.346 68.1195 229.317 85.52 229.317C112.892 229.317 135.469 251.655 135.709 278.96L85.52 279.392Z" fill="#E5FF69"/>
<path d="M254.69 239.195H148.198C146.791 239.195 145.65 240.333 145.65 241.736C145.65 243.14 146.791 244.278 148.198 244.278H254.69C256.097 244.278 257.237 243.14 257.237 241.736C257.237 240.333 256.097 239.195 254.69 239.195Z" fill="#F08F74"/>
<path d="M254.69 259.53H161.955C160.548 259.53 159.407 260.668 159.407 262.072C159.407 263.476 160.548 264.614 161.955 264.614H254.69C256.097 264.614 257.237 263.476 257.237 262.072C257.237 260.668 256.097 259.53 254.69 259.53Z" fill="#F08F74"/>
<path d="M254.69 279.865H165.522C164.115 279.865 162.974 281.003 162.974 282.407C162.974 283.811 164.115 284.949 165.522 284.949H254.69C256.097 284.949 257.237 283.811 257.237 282.407C257.237 281.003 256.097 279.865 254.69 279.865Z" fill="#F08F74"/>
<path d="M257.747 300.201H161.955C160.548 300.201 159.407 301.339 159.407 302.742C159.407 304.146 160.548 305.284 161.955 305.284H257.747C259.154 305.284 260.295 304.146 260.295 302.742C260.295 301.339 259.154 300.201 257.747 300.201Z" fill="#F08F74"/>
<path d="M258.256 321.044H148.198C146.791 321.044 145.65 322.182 145.65 323.586C145.65 324.99 146.791 326.128 148.198 326.128H258.256C259.664 326.128 260.804 324.99 260.804 323.586C260.804 322.182 259.664 321.044 258.256 321.044Z" fill="#F08F74"/>
</g>
<g filter="url(#filter4_d_374_4450)">
<path d="M711.74 244.787H441.179C435.55 244.787 430.988 249.339 430.988 254.954V334.008C430.988 339.624 435.55 344.176 441.179 344.176H711.74C717.368 344.176 721.931 339.624 721.931 334.008V254.954C721.931 249.339 717.368 244.787 711.74 244.787Z" fill="white"/>
<path d="M588.178 258.767H450.095C447.281 258.767 445 261.043 445 263.851V296.388C445 299.195 447.281 301.471 450.095 301.471H588.178C590.993 301.471 593.274 299.195 593.274 296.388V263.851C593.274 261.043 590.993 258.767 588.178 258.767Z" fill="#C3DF3E"/>
<path d="M704.607 262.58H616.458C615.051 262.58 613.91 263.718 613.91 265.122C613.91 266.526 615.051 267.664 616.458 267.664H704.607C706.014 267.664 707.154 266.526 707.154 265.122C707.154 263.718 706.014 262.58 704.607 262.58Z" fill="#D2E286"/>
<path d="M704.097 280.374H615.948C614.541 280.374 613.4 281.512 613.4 282.915C613.4 284.319 614.541 285.457 615.948 285.457H704.097C705.504 285.457 706.645 284.319 706.645 282.915C706.645 281.512 705.504 280.374 704.097 280.374Z" fill="#D2E286"/>
<path d="M704.097 298.167H615.948C614.541 298.167 613.4 299.305 613.4 300.709C613.4 302.113 614.541 303.251 615.948 303.251H704.097C705.504 303.251 706.645 302.113 706.645 300.709C706.645 299.305 705.504 298.167 704.097 298.167Z" fill="#D2E286"/>
<path d="M704.097 319.011H447.293C445.886 319.011 444.745 320.149 444.745 321.553C444.745 322.957 445.886 324.095 447.293 324.095H704.097C705.504 324.095 706.645 322.957 706.645 321.553C706.645 320.149 705.504 319.011 704.097 319.011Z" fill="#D2E286"/>
</g>
<defs>
<filter id="filter0_d_374_4450" x="108.53" y="29.7404" width="524.156" height="357.26" filterUnits="userSpaceOnUse" color-interpolation-filters="sRGB">
<feFlood flood-opacity="0" result="BackgroundImageFix"/>
<feColorMatrix in="SourceAlpha" type="matrix" values="0 0 0 0 0 0 0 0 0 0 0 0 0 0 0 0 0 0 127 0" result="hardAlpha"/>
<feOffset dy="4"/>
<feGaussianBlur stdDeviation="2"/>
<feComposite in2="hardAlpha" operator="out"/>
<feColorMatrix type="matrix" values="0 0 0 0 0 0 0 0 0 0 0 0 0 0 0 0 0 0 0.25 0"/>
<feBlend mode="normal" in2="BackgroundImageFix" result="effect1_dropShadow_374_4450"/>
<feBlend mode="normal" in="SourceGraphic" in2="effect1_dropShadow_374_4450" result="shape"/>
</filter>
<filter id="filter1_d_374_4450" x="0.254761" y="82.3582" width="252.575" height="69.006" filterUnits="userSpaceOnUse" color-interpolation-filters="sRGB">
<feFlood flood-opacity="0" result="BackgroundImageFix"/>
<feColorMatrix in="SourceAlpha" type="matrix" values="0 0 0 0 0 0 0 0 0 0 0 0 0 0 0 0 0 0 127 0" result="hardAlpha"/>
<feOffset dy="4"/>
<feGaussianBlur stdDeviation="2"/>
<feComposite in2="hardAlpha" operator="out"/>
<feColorMatrix type="matrix" values="0 0 0 0 0 0 0 0 0 0 0 0 0 0 0 0 0 0 0.25 0"/>
<feBlend mode="normal" in2="BackgroundImageFix" result="effect1_dropShadow_374_4450"/>
<feBlend mode="normal" in="SourceGraphic" in2="effect1_dropShadow_374_4450" result="shape"/>
</filter>
<filter id="filter2_d_374_4450" x="470.808" y="0.254196" width="271.938" height="171.7" filterUnits="userSpaceOnUse" color-interpolation-filters="sRGB">
<feFlood flood-opacity="0" result="BackgroundImageFix"/>
<feColorMatrix in="SourceAlpha" type="matrix" values="0 0 0 0 0 0 0 0 0 0 0 0 0 0 0 0 0 0 127 0" result="hardAlpha"/>
<feOffset dy="4"/>
<feGaussianBlur stdDeviation="2"/>
<feComposite in2="hardAlpha" operator="out"/>
<feColorMatrix type="matrix" values="0 0 0 0 0 0 0 0 0 0 0 0 0 0 0 0 0 0 0.25 0"/>
<feBlend mode="normal" in2="BackgroundImageFix" result="effect1_dropShadow_374_4450"/>
<feBlend mode="normal" in="SourceGraphic" in2="effect1_dropShadow_374_4450" result="shape"/>
</filter>
<filter id="filter3_d_374_4450" x="17.5789" y="216.826" width="262.766" height="135.096" filterUnits="userSpaceOnUse" color-interpolation-filters="sRGB">
<feFlood flood-opacity="0" result="BackgroundImageFix"/>
<feColorMatrix in="SourceAlpha" type="matrix" values="0 0 0 0 0 0 0 0 0 0 0 0 0 0 0 0 0 0 127 0" result="hardAlpha"/>
<feOffset dy="4"/>
<feGaussianBlur stdDeviation="2"/>
<feComposite in2="hardAlpha" operator="out"/>
<feColorMatrix type="matrix" values="0 0 0 0 0 0 0 0 0 0 0 0 0 0 0 0 0 0 0.25 0"/>
<feBlend mode="normal" in2="BackgroundImageFix" result="effect1_dropShadow_374_4450"/>
<feBlend mode="normal" in="SourceGraphic" in2="effect1_dropShadow_374_4450" result="shape"/>
</filter>
<filter id="filter4_d_374_4450" x="426.988" y="244.787" width="298.943" height="107.389" filterUnits="userSpaceOnUse" color-interpolation-filters="sRGB">
<feFlood flood-opacity="0" result="BackgroundImageFix"/>
<feColorMatrix in="SourceAlpha" type="matrix" values="0 0 0 0 0 0 0 0 0 0 0 0 0 0 0 0 0 0 127 0" result="hardAlpha"/>
<feOffset dy="4"/>
<feGaussianBlur stdDeviation="2"/>
<feComposite in2="hardAlpha" operator="out"/>
<feColorMatrix type="matrix" values="0 0 0 0 0 0 0 0 0 0 0 0 0 0 0 0 0 0 0.25 0"/>
<feBlend mode="normal" in2="BackgroundImageFix" result="effect1_dropShadow_374_4450"/>
<feBlend mode="normal" in="SourceGraphic" in2="effect1_dropShadow_374_4450" result="shape"/>
</filter>
</defs>
</svg>

<svg width="743" height="387" fill="none" xmlns="http://www.w3.org/2000/svg"><g filter="url(#a)"><path d="M598.114 29.995H143.102c-16.743 0-30.317 13.543-30.317 30.248v288.254c0 16.706 13.574 30.249 30.317 30.249h455.012c16.744 0 30.318-13.543 30.318-30.249V60.243c0-16.706-13.574-30.248-30.318-30.248Z" fill="#FFE083"/><path d="M598.114 30.249c16.576 0 30.063 13.457 30.063 29.994v288.254c0 16.538-13.487 29.995-30.063 29.995H143.102c-16.575 0-30.062-13.457-30.062-29.995V60.243c0-16.537 13.487-29.994 30.062-29.994h455.012Zm0-.509H143.102c-16.886 0-30.572 13.656-30.572 30.503v288.254c0 16.848 13.686 30.503 30.572 30.503h455.012c16.886 0 30.572-13.655 30.572-30.503V60.243c0-16.847-13.686-30.503-30.572-30.503Z" fill="#FFE083"/><path d="M112.785 71.174v-10.93c0-16.68 13.6-30.25 30.317-30.25h455.012c16.718 0 30.318 13.57 30.318 30.25v10.93H112.785Z" fill="#EF4D1F"/><path d="M598.114 30.249c16.576 0 30.063 13.457 30.063 29.994V70.92H113.04V60.245c0-16.538 13.487-29.995 30.062-29.995h455.012Zm0-.509H143.102c-16.886 0-30.572 13.656-30.572 30.503v11.185h516.156V60.244c0-16.848-13.686-30.504-30.572-30.504Z" fill="#EF4D1F"/><path d="M149.217 62.531c6.613 0 11.974-5.349 11.974-11.947 0-6.598-5.361-11.947-11.974-11.947s-11.974 5.349-11.974 11.947c0 6.598 5.361 11.947 11.974 11.947Z" fill="#B81309"/><path d="M149.217 38.891c6.46 0 11.719 5.247 11.719 11.693 0 6.447-5.259 11.693-11.719 11.693-6.461 0-11.72-5.246-11.72-11.693 0-6.446 5.259-11.693 11.72-11.693Zm0-.508c-6.752 0-12.229 5.465-12.229 12.201 0 6.736 5.477 12.201 12.229 12.201 6.751 0 12.228-5.465 12.228-12.2 0-6.737-5.477-12.202-12.228-12.202Zm33.119 24.148c6.613 0 11.974-5.349 11.974-11.947 0-6.598-5.361-11.947-11.974-11.947s-11.974 5.349-11.974 11.947c0 6.598 5.361 11.947 11.974 11.947Z" fill="#B81309"/><path d="M182.336 38.891c6.461 0 11.719 5.247 11.719 11.693 0 6.447-5.258 11.693-11.719 11.693-6.461 0-11.719-5.246-11.719-11.693 0-6.446 5.258-11.693 11.719-11.693Zm0-.508c-6.751 0-12.229 5.465-12.229 12.201 0 6.736 5.478 12.201 12.229 12.201 6.752 0 12.229-5.465 12.229-12.2 0-6.737-5.477-12.202-12.229-12.202Zm30.572 24.148c6.613 0 11.974-5.349 11.974-11.947 0-6.598-5.361-11.947-11.974-11.947s-11.974 5.349-11.974 11.947c0 6.598 5.361 11.947 11.974 11.947Z" fill="#B81309"/><path d="M212.908 38.891c6.461 0 11.719 5.247 11.719 11.693 0 6.447-5.258 11.693-11.719 11.693-6.461 0-11.719-5.246-11.719-11.693 0-6.446 5.258-11.693 11.719-11.693Zm0-.508c-6.751 0-12.229 5.465-12.229 12.201 0 6.736 5.478 12.201 12.229 12.201 6.751 0 12.229-5.465 12.229-12.2 0-6.737-5.478-12.202-12.229-12.202Z" fill="#B81309"/></g><g filter="url(#b)"><path d="M238.64 82.358H14.445c-5.628 0-10.19 4.552-10.19 10.168v40.671c0 5.615 4.562 10.167 10.19 10.167H238.64c5.628 0 10.19-4.552 10.19-10.167V92.526c0-5.616-4.562-10.168-10.19-10.168Z" fill="#fff"/><path d="M38.393 136.247c12.945 0 23.439-10.47 23.439-23.386 0-12.915-10.494-23.386-23.439-23.386-12.944 0-23.438 10.47-23.438 23.386 0 12.916 10.494 23.386 23.438 23.386Z" fill="#E5FF69"/><path d="M225.392 95.322H73.042a2.8 2.8 0 0 0-2.803 2.796v3.559a2.8 2.8 0 0 0 2.803 2.796h152.35a2.8 2.8 0 0 0 2.802-2.796v-3.559a2.8 2.8 0 0 0-2.802-2.796Zm-78.978 26.944H73.042a2.8 2.8 0 0 0-2.803 2.796 2.799 2.799 0 0 0 2.803 2.796h73.372a2.799 2.799 0 0 0 2.803-2.796 2.8 2.8 0 0 0-2.803-2.796Zm78.978 0h-36.687a2.8 2.8 0 0 0-2.802 2.796 2.799 2.799 0 0 0 2.802 2.796h36.687a2.799 2.799 0 0 0 2.802-2.796 2.8 2.8 0 0 0-2.802-2.796Z" fill="#D2E286"/></g><g filter="url(#c)"><path d="M718.364.254H495.189c-11.256 0-20.381 9.105-20.381 20.335v123.029c0 11.231 9.125 20.336 20.381 20.336h223.175c11.256 0 20.381-9.105 20.381-20.336V20.59c0-11.231-9.125-20.336-20.381-20.336Z" fill="#FFEFBE"/><path d="M710.211 13.472H502.832c-5.628 0-10.191 4.552-10.191 10.168v89.475c0 5.616 4.563 10.168 10.191 10.168h207.379c5.629 0 10.191-4.552 10.191-10.168V23.64c0-5.616-4.562-10.168-10.191-10.168Z" fill="#FF3E48"/><path d="m645.302 57.458-42.571-24.525c-9.131-5.262-20.545 1.317-20.545 11.835v49.044c0 10.518 11.414 17.097 20.545 11.835l42.571-24.524c9.131-5.262 9.131-18.409 0-23.67v.005Z" fill="#fff"/><path d="M583.338 133.959h-87.64a3.054 3.054 0 0 0-3.057 3.05 3.054 3.054 0 0 0 3.057 3.051h87.64a3.054 3.054 0 0 0 3.057-3.051 3.054 3.054 0 0 0-3.057-3.05Zm-28.534 12.71h-59.106a3.053 3.053 0 0 0-3.057 3.05 3.053 3.053 0 0 0 3.057 3.05h59.106a3.053 3.053 0 0 0 3.057-3.05 3.053 3.053 0 0 0-3.057-3.05Zm134.007 0h-59.106a3.053 3.053 0 0 0-3.057 3.05 3.053 3.053 0 0 0 3.057 3.05h59.106a3.053 3.053 0 0 0 3.057-3.05 3.053 3.053 0 0 0-3.057-3.05Zm28.534-12.71h-87.64a3.054 3.054 0 0 0-3.057 3.05 3.054 3.054 0 0 0 3.057 3.051h87.64a3.054 3.054 0 0 0 3.057-3.051 3.054 3.054 0 0 0-3.057-3.05Z" fill="#FFC1A5"/></g><g filter="url(#d)"><path d="M255.964 216.826H41.96c-11.256 0-20.381 9.104-20.381 20.335v86.425c0 11.231 9.125 20.336 20.381 20.336h214.004c11.256 0 20.381-9.105 20.381-20.336v-86.425c0-11.231-9.125-20.335-20.381-20.335Z" fill="#fff"/><path d="M86.035 281.39h50.189c0 27.473-22.654 50.076-50.19 50.076a50.177 50.177 0 0 1-18.903-3.691l18.904-46.385Z" fill="#FFE083"/><path d="m83.996 280.882-19.29 46.227c-18.675-7.758-30.898-26.049-30.898-46.227a49.994 49.994 0 0 1 7.464-26.278l42.724 26.278Z" fill="#EF4D1F"/><path d="m85.52 279.392-42.73-26.263c9.126-14.783 25.33-23.812 42.73-23.812 27.372 0 49.949 22.338 50.189 49.643l-50.189.432Z" fill="#E5FF69"/><path d="M254.69 239.195H148.198a2.545 2.545 0 0 0-2.548 2.541 2.545 2.545 0 0 0 2.548 2.542H254.69a2.544 2.544 0 0 0 2.547-2.542 2.544 2.544 0 0 0-2.547-2.541Zm0 20.335h-92.735a2.545 2.545 0 0 0-2.548 2.542 2.545 2.545 0 0 0 2.548 2.542h92.735a2.544 2.544 0 0 0 2.547-2.542 2.544 2.544 0 0 0-2.547-2.542Zm0 20.335h-89.168a2.545 2.545 0 0 0-2.548 2.542 2.545 2.545 0 0 0 2.548 2.542h89.168a2.544 2.544 0 0 0 2.547-2.542 2.544 2.544 0 0 0-2.547-2.542Zm3.057 20.336h-95.792a2.545 2.545 0 0 0-2.548 2.541 2.545 2.545 0 0 0 2.548 2.542h95.792a2.545 2.545 0 0 0 2.548-2.542 2.545 2.545 0 0 0-2.548-2.541Zm.509 20.843H148.198a2.545 2.545 0 0 0-2.548 2.542 2.545 2.545 0 0 0 2.548 2.542h110.058a2.544 2.544 0 0 0 2.548-2.542 2.544 2.544 0 0 0-2.548-2.542Z" fill="#F08F74"/></g><g filter="url(#e)"><path d="M711.74 244.787H441.179c-5.629 0-10.191 4.552-10.191 10.167v79.054c0 5.616 4.562 10.168 10.191 10.168H711.74c5.628 0 10.191-4.552 10.191-10.168v-79.054c0-5.615-4.563-10.167-10.191-10.167Z" fill="#fff"/><path d="M588.178 258.767H450.095a5.09 5.09 0 0 0-5.095 5.084v32.537a5.09 5.09 0 0 0 5.095 5.083h138.083a5.09 5.09 0 0 0 5.096-5.083v-32.537a5.09 5.09 0 0 0-5.096-5.084Z" fill="#C3DF3E"/><path d="M704.607 262.58h-88.149a2.545 2.545 0 0 0-2.548 2.542 2.545 2.545 0 0 0 2.548 2.542h88.149a2.544 2.544 0 0 0 2.547-2.542 2.544 2.544 0 0 0-2.547-2.542Zm-.51 17.794h-88.149a2.545 2.545 0 0 0-2.548 2.541 2.545 2.545 0 0 0 2.548 2.542h88.149a2.545 2.545 0 0 0 2.548-2.542 2.545 2.545 0 0 0-2.548-2.541Zm0 17.793h-88.149a2.545 2.545 0 0 0-2.548 2.542 2.545 2.545 0 0 0 2.548 2.542h88.149a2.545 2.545 0 0 0 2.548-2.542 2.545 2.545 0 0 0-2.548-2.542Zm0 20.844H447.293a2.545 2.545 0 0 0-2.548 2.542 2.545 2.545 0 0 0 2.548 2.542h256.804a2.545 2.545 0 0 0 2.548-2.542 2.545 2.545 0 0 0-2.548-2.542Z" fill="#D2E286"/></g><defs><filter id="a" x="108.53" y="29.74" width="524.156" height="357.26" filterUnits="userSpaceOnUse" color-interpolation-filters="sRGB"><feFlood flood-opacity="0" result="BackgroundImageFix"/><feColorMatrix in="SourceAlpha" values="0 0 0 0 0 0 0 0 0 0 0 0 0 0 0 0 0 0 127 0" result="hardAlpha"/><feOffset dy="4"/><feGaussianBlur stdDeviation="2"/><feComposite in2="hardAlpha" operator="out"/><feColorMatrix values="0 0 0 0 0 0 0 0 0 0 0 0 0 0 0 0 0 0 0.25 0"/><feBlend in2="BackgroundImageFix" result="effect1_dropShadow_374_4450"/><feBlend in="SourceGraphic" in2="effect1_dropShadow_374_4450" result="shape"/></filter><filter id="b" x=".255" y="82.358" width="252.575" height="69.006" filterUnits="userSpaceOnUse" color-interpolation-filters="sRGB"><feFlood flood-opacity="0" result="BackgroundImageFix"/><feColorMatrix in="SourceAlpha" values="0 0 0 0 0 0 0 0 0 0 0 0 0 0 0 0 0 0 127 0" result="hardAlpha"/><feOffset dy="4"/><feGaussianBlur stdDeviation="2"/><feComposite in2="hardAlpha" operator="out"/><feColorMatrix values="0 0 0 0 0 0 0 0 0 0 0 0 0 0 0 0 0 0 0.25 0"/><feBlend in2="BackgroundImageFix" result="effect1_dropShadow_374_4450"/><feBlend in="SourceGraphic" in2="effect1_dropShadow_374_4450" result="shape"/></filter><filter id="c" x="470.808" y=".254" width="271.938" height="171.7" filterUnits="userSpaceOnUse" color-interpolation-filters="sRGB"><feFlood flood-opacity="0" result="BackgroundImageFix"/><feColorMatrix in="SourceAlpha" values="0 0 0 0 0 0 0 0 0 0 0 0 0 0 0 0 0 0 127 0" result="hardAlpha"/><feOffset dy="4"/><feGaussianBlur stdDeviation="2"/><feComposite in2="hardAlpha" operator="out"/><feColorMatrix values="0 0 0 0 0 0 0 0 0 0 0 0 0 0 0 0 0 0 0.25 0"/><feBlend in2="BackgroundImageFix" result="effect1_dropShadow_374_4450"/><feBlend in="SourceGraphic" in2="effect1_dropShadow_374_4450" result="shape"/></filter><filter id="d" x="17.579" y="216.826" width="262.766" height="135.096" filterUnits="userSpaceOnUse" color-interpolation-filters="sRGB"><feFlood flood-opacity="0" result="BackgroundImageFix"/><feColorMatrix in="SourceAlpha" values="0 0 0 0 0 0 0 0 0 0 0 0 0 0 0 0 0 0 127 0" result="hardAlpha"/><feOffset dy="4"/><feGaussianBlur stdDeviation="2"/><feComposite in2="hardAlpha" operator="out"/><feColorMatrix values="0 0 0 0 0 0 0 0 0 0 0 0 0 0 0 0 0 0 0.25 0"/><feBlend in2="BackgroundImageFix" result="effect1_dropShadow_374_4450"/><feBlend in="SourceGraphic" in2="effect1_dropShadow_374_4450" result="shape"/></filter><filter id="e" x="426.988" y="244.787" width="298.943" height="107.389" filterUnits="userSpaceOnUse" color-interpolation-filters="sRGB"><feFlood flood-opacity="0" result="BackgroundImageFix"/><feColorMatrix in="SourceAlpha" values="0 0 0 0 0 0 0 0 0 0 0 0 0 0 0 0 0 0 127 0" result="hardAlpha"/><feOffset dy="4"/><feGaussianBlur stdDeviation="2"/><feComposite in2="hardAlpha" operator="out"/><feColorMatrix values="0 0 0 0 0 0 0 0 0 0 0 0 0 0 0 0 0 0 0.25 0"/><feBlend in2="BackgroundImageFix" result="effect1_dropShadow_374_4450"/><feBlend in="SourceGraphic" in2="effect1_dropShadow_374_4450" result="shape"/></filter></defs></svg>
